!! 00000] TT[WS
!!!OTL: Xiu hebao
!!!ARE: Asia, China, Shanxi Qinyuan
!! Ethnic Group: Han
!! WII, 56 (2)
!!!SCT: J0478
!!!YEM: Copyright 1995, estate of Helmut Schaffrath.
**kern
*ICvox
*Ivox
*M4/4
*k[b-e-]
*B-:
{4bb-
8bb-
8dd
2ff
=1
8bb-
8ccc
8fff
8ccc
2bb-}
=2
{8bb-
8ccc
4fff
8fff
8ddd
8ccc
8bb-
=3
8bb-
8aa
8gg
8dd
2ff}
=4
{8ccc
8fff
8gg
8bb-
8ccc
8fff
8ddd
8ccc
=5
4bb-
8ccc
8gg
4ff
8ff
8dd}
=6
{4ccc
8bb-
8ccc
8fff
8ccc
8bb-
8aa
=7
8gg
16ff
16gg
8ff
8cc
2b-}
=8
{8gg
16ff
16gg
8cc
8dd
4ff
8ff
8dd
=9
8ccc
8ccc
8bb-
8ccc
8fff
8ccc
8bb-
8aa
=10
8gg
16ff
16gg
8ff
8cc
2b-}
==
!!!AGN: Xiaodiao. Qingge, Sichun
!!!ONB: ESAC (Essen Associative Code) Database: CHINA
!!!AMT: simple quadruple
!!!AIN: vox
!!!EED: Helmut Schaffrath
!!!EEV: 1.0
*-
